X: 34980
T: Rodent's Return
R: three-two
M: 3/2
K: Eminor
||"Em" E2G2e2|"D7"dA2BcB/A/|"Em"BGEF/G/AF|"Em"G/A/Bee "D7"fd||
"Em"E2G2e2|"D7"dA2BcB/A/|"G"G/A/B "D"F/G/A "Em"E/F/G/A/|"Em"Bg2 "D"f "Em"e2:|
"G"g/f/e/f/ g2 Bg|"D"f/e/d/e/ f2 Af|"G"g/f/e/f/ g2 Bg|"Am"cB/A/ "B7"B/A/G/F/ "Em"E2|
"Em"g/f/e/f/ gB2g|"D7"f/g/a/g/ fA2d|"Em"G/A/B "D7" A/B/c "G"B/A/G/F/|"Em"E/F/G/A/ "B7"BB "Em"e2:|

